;FLAVOR:Marlin
;TIME:7709
;Filament used: 11.6868m
;Layer height: 0.2
;MINX:5.496
;MINY:5.983
;MINZ:0.3
;MAXX:161.596
;MAXY:145.083
;MAXZ:9.1
;Generated with Cura_SteamEngine 5.0.0
M140 S80
M105
M190 S80
M104 S255
M105
M109 S255
M82 ;absolute extrusion mode
G21 ;metric values
 G90 ;absolute positioning
 M82 ;set extruder to absolute mode
 M107 ;start with the fan off
 G28 X0 Y0 ;move X/Y to min endstops
 G28 Z0 ;move Z to min endstops
 G1 Z15.0 F120 ;move the platform down 15mm
 G92 E0 ;zero the extruded length
 G1 F200 E6 ;extrude 6 mm of feed stock
 G92 E0 ;zero the extruded length again
 G1 F120 
 ;Put printing message on LCD screen
 M117 Printing...
G92 E0
G92 E0
G1 F1500 E-0.8
;LAYER_COUNT:45
;LAYER:0
M107
G0 F2160 X7.394 Y8.07 Z0.3
G0 X5.497 Y12.727
;TYPE:SKIRT
G1 F1500 E0
G1 F3600 X5.543 Y11.99 E0.03684
G1 X5.629 Y11.453 E0.06397
G1 X5.813 Y10.736 E0.1009
G1 X5.996 Y10.225 E0.12798
G1 X6.305 Y9.564 E0.16439
G1 X6.586 Y9.091 E0.19183
G1 X7.02 Y8.494 E0.22866
G1 X7.394 Y8.07 E0.25686
G1 X7.936 Y7.566 E0.29379
G1 X8.359 Y7.24 E0.32043
G1 X8.987 Y6.843 E0.3575
G1 X9.47 Y6.6 E0.38447
G1 X10.167 Y6.327 E0.42182
G1 X10.672 Y6.182 E0.44803
G1 X11.41 Y6.042 E0.48551
G1 X11.938 Y5.994 E0.51196
G1 X12.296 Y5.983 E0.52983
G1 X154.81 Y5.983 E7.63988
G1 X155.609 Y6.032 E7.67982
G1 X156.158 Y6.12 E7.70756
G1 X156.864 Y6.306 E7.74398
G1 X157.372 Y6.491 E7.77095
G1 X158.038 Y6.806 E7.80771
G1 X158.504 Y7.084 E7.83478
G1 X159.1 Y7.519 E7.87159
G1 X159.492 Y7.864 E7.89764
G1 X160.001 Y8.408 E7.93481
G1 X160.327 Y8.829 E7.96138
G1 X160.725 Y9.453 E7.9983
G1 X160.971 Y9.937 E8.02539
G1 X161.246 Y10.631 E8.06263
G1 X161.394 Y11.143 E8.08922
G1 X161.534 Y11.868 E8.12606
G1 X161.585 Y12.412 E8.15332
G1 X161.596 Y12.783 E8.17184
G1 X161.595 Y138.339 E14.43585
G1 X161.549 Y139.075 E14.47264
G1 X161.463 Y139.615 E14.49992
G1 X161.28 Y140.328 E14.53665
G1 X161.097 Y140.838 E14.56368
G1 X160.787 Y141.502 E14.60024
G1 X160.506 Y141.975 E14.62769
G1 X160.072 Y142.572 E14.66451
G1 X159.709 Y142.984 E14.69191
G1 X159.152 Y143.502 E14.72985
G1 X158.729 Y143.828 E14.7565
G1 X158.105 Y144.222 E14.79332
G1 X157.622 Y144.466 E14.82031
G1 X156.925 Y144.739 E14.85766
G1 X156.414 Y144.885 E14.88417
G1 X155.682 Y145.023 E14.92134
G1 X155.154 Y145.072 E14.94779
G1 X154.796 Y145.083 E14.96566
G1 X12.219 Y145.082 E22.07885
G1 X11.477 Y145.032 E22.11596
G1 X10.939 Y144.946 E22.14314
G1 X10.228 Y144.76 E22.1798
G1 X9.72 Y144.575 E22.20678
G1 X9.045 Y144.253 E22.24409
G1 X8.591 Y143.983 E22.27044
G1 X7.987 Y143.542 E22.30775
G1 X7.599 Y143.201 E22.33352
G1 X7.09 Y142.657 E22.37069
G1 X6.763 Y142.235 E22.39733
G1 X6.367 Y141.614 E22.43407
G1 X6.12 Y141.127 E22.46131
G1 X5.846 Y140.434 E22.49849
G1 X5.698 Y139.922 E22.52508
G1 X5.558 Y139.193 E22.56212
G1 X5.509 Y138.678 E22.58793
G1 X5.496 Y138.283 E22.60764
G1 X5.497 Y12.727 E28.87166
G0 F2160 X5.897 Y12.739
G1 F3600 X5.941 Y12.027 E28.90725
G1 X6.088 Y11.232 E28.94758
G1 X6.328 Y10.471 E28.98739
G1 X6.663 Y9.744 E29.02733
G1 X7.094 Y9.056 E29.06783
G1 X7.611 Y8.423 E29.10861
G1 X8.199 Y7.867 E29.14898
G1 X8.844 Y7.394 E29.18888
G1 X9.556 Y7.001 E29.22946
G1 X10.3 Y6.704 E29.26942
G1 X11.067 Y6.503 E29.30898
G1 X11.873 Y6.399 E29.34953
G1 X12.296 Y6.383 E29.37065
G1 X154.81 Y6.383 E36.4807
G1 X155.571 Y6.43 E36.51874
G1 X156.067 Y6.51 E36.5438
G1 X156.751 Y6.69 E36.57909
G1 X157.5 Y6.983 E36.61921
G1 X158.207 Y7.369 E36.6594
G1 X158.855 Y7.835 E36.69922
G1 X159.431 Y8.369 E36.73841
G1 X159.947 Y8.986 E36.77854
G1 X160.381 Y9.657 E36.8184
G1 X160.729 Y10.385 E36.85866
G1 X160.983 Y11.148 E36.89878
G1 X161.139 Y11.932 E36.93866
G1 X161.195 Y12.738 E36.97897
G1 X161.195 Y138.327 E43.24463
G1 X161.151 Y139.038 E43.28017
G1 X161.004 Y139.834 E43.32055
G1 X160.763 Y140.595 E43.36038
G1 X160.429 Y141.322 E43.40029
G1 X159.998 Y142.01 E43.4408
G1 X159.495 Y142.629 E43.48059
G1 X159.126 Y142.995 E43.50652
G1 X158.581 Y143.443 E43.54172
G1 X157.902 Y143.877 E43.58192
G1 X157.176 Y144.223 E43.62204
G1 X156.411 Y144.474 E43.66221
G1 X155.621 Y144.628 E43.70237
G1 X154.843 Y144.682 E43.74128
G1 X12.233 Y144.682 E50.85612
G1 X11.516 Y144.634 E50.89197
G1 X10.725 Y144.486 E50.93212
G1 X9.965 Y144.243 E50.97192
G1 X9.229 Y143.898 E51.01248
G1 X8.556 Y143.475 E51.05213
G1 X7.95 Y142.982 E51.09111
G1 X7.39 Y142.393 E51.13166
G1 X6.917 Y141.75 E51.17148
G1 X6.522 Y141.042 E51.21193
G1 X6.223 Y140.299 E51.25189
G1 X6.019 Y139.527 E51.29172
G1 X5.914 Y138.739 E51.33138
G1 X5.896 Y138.283 E51.35415
G1 X5.897 Y12.739 E57.61757
G0 F2160 X6.297 Y12.752
G1 F3600 X6.339 Y12.064 E57.65196
G1 X6.478 Y11.319 E57.68976
G1 X6.705 Y10.606 E57.7271
G1 X7.02 Y9.924 E57.76457
G1 X7.424 Y9.281 E57.80246
G1 X7.911 Y8.687 E57.84078
G1 X8.462 Y8.169 E57.87851
G1 X9.069 Y7.725 E57.91603
G1 X9.735 Y7.359 E57.95395
G1 X10.434 Y7.081 E57.99148
G1 X11.155 Y6.893 E58.02865
G1 X11.909 Y6.797 E58.06657
G1 X12.296 Y6.783 E58.08589
G1 X154.81 Y6.783 E65.19594
G1 X155.533 Y6.829 E65.23209
G1 X156.28 Y6.97 E65.27001
G1 X156.991 Y7.2 E65.30729
G1 X157.674 Y7.518 E65.34488
G1 X158.311 Y7.921 E65.38249
G1 X158.879 Y8.386 E65.41911
G1 X159.4 Y8.936 E65.45691
G1 X159.844 Y9.541 E65.49435
G1 X160.213 Y10.203 E65.53216
G1 X160.492 Y10.901 E65.56966
G1 X160.683 Y11.626 E65.60706
G1 X160.782 Y12.377 E65.64486
G1 X160.796 Y12.783 E65.66512
G1 X160.795 Y138.314 E71.92789
G1 X160.753 Y139.001 E71.96223
G1 X160.614 Y139.746 E72.00004
G1 X160.386 Y140.46 E72.03743
G1 X160.072 Y141.142 E72.07489
G1 X159.668 Y141.785 E72.11278
G1 X159.194 Y142.365 E72.15015
G1 X158.628 Y142.898 E72.18893
G1 X158.021 Y143.341 E72.22643
G1 X157.36 Y143.706 E72.2641
G1 X156.658 Y143.985 E72.30178
G1 X155.934 Y144.172 E72.33909
G1 X155.186 Y144.269 E72.37672
G1 X154.796 Y144.283 E72.39619
G1 X12.247 Y144.282 E79.50799
G1 X11.556 Y144.236 E79.54254
G1 X10.815 Y144.096 E79.58016
G1 X10.101 Y143.866 E79.61759
G1 X9.413 Y143.543 E79.6555
G1 X8.781 Y143.145 E79.69277
G1 X8.213 Y142.681 E79.72936
G1 X7.691 Y142.129 E79.76726
G1 X7.247 Y141.525 E79.80466
G1 X6.879 Y140.862 E79.84249
G1 X6.6 Y140.164 E79.87999
G1 X6.409 Y139.439 E79.9174
G1 X6.312 Y138.703 E79.95443
G1 X6.296 Y138.283 E79.9754
G1 X6.297 Y12.752 E86.23817
G0 F2160 X6.696 Y12.765
G1 F3600 X6.738 Y12.101 E86.27136
G1 X6.869 Y11.407 E86.3066
G1 X7.082 Y10.74 E86.34153
G1 X7.377 Y10.104 E86.37651
G1 X7.755 Y9.506 E86.4118
G1 X8.211 Y8.952 E86.4476
G1 X8.725 Y8.47 E86.48276
G1 X9.293 Y8.056 E86.51782
G1 X9.914 Y7.716 E86.55314
G1 X10.567 Y7.458 E86.58817
G1 X11.242 Y7.284 E86.62295
G1 X11.945 Y7.195 E86.6583
G1 X12.276 Y7.183 E86.67483
G1 X154.831 Y7.183 E93.78692
G1 X155.495 Y7.227 E93.82012
G1 X156.189 Y7.36 E93.85538
G1 X156.855 Y7.576 E93.89031
G1 X157.492 Y7.875 E93.92542
G1 X158.086 Y8.252 E93.96052
G1 X158.615 Y8.686 E93.99465
G1 X159.099 Y9.199 E94.02984
G1 X159.514 Y9.766 E94.06489
G1 X159.856 Y10.383 E94.10009
G1 X160.116 Y11.036 E94.13515
G1 X160.292 Y11.713 E94.17005
G1 X160.383 Y12.414 E94.20532
G1 X160.396 Y12.764 E94.22279
G1 X160.396 Y138.301 E100.48586
G1 X160.354 Y138.964 E100.519
G1 X160.223 Y139.659 E100.55429
G1 X160.01 Y140.325 E100.58917
G1 X159.715 Y140.962 E100.62419
G1 X159.337 Y141.56 E100.65949
G1 X158.893 Y142.102 E100.69444
G1 X158.365 Y142.596 E100.73052
G1 X157.797 Y143.009 E100.76556
G1 X157.18 Y143.349 E100.8007
G1 X156.525 Y143.608 E100.83584
G1 X155.848 Y143.782 E100.87072
G1 X155.149 Y143.87 E100.90586
G1 X154.816 Y143.883 E100.92249
G1 X12.261 Y143.883 E108.03459
G1 X11.595 Y143.838 E108.06789
G1 X10.904 Y143.707 E108.10298
G1 X10.237 Y143.49 E108.13797
G1 X9.597 Y143.188 E108.17328
G1 X9.006 Y142.814 E108.20817
G1 X8.477 Y142.38 E108.24231
G1 X7.992 Y141.866 E108.27757
G1 X7.578 Y141.3 E108.31255
G1 X7.236 Y140.682 E108.34779
G1 X6.976 Y140.029 E108.38286
G1 X6.8 Y139.352 E108.41775
G1 X6.71 Y138.667 E108.45222
G1 X6.696 Y138.305 E108.4703
G1 X6.696 Y12.765 E114.73351
G0 F2160 X7.096 Y12.778
G1 F3600 X7.136 Y12.138 E114.7655
G1 X7.259 Y11.494 E114.79821
G1 X7.459 Y10.875 E114.83067
G1 X7.734 Y10.284 E114.86319
G1 X8.086 Y9.731 E114.89589
G1 X8.511 Y9.217 E114.92917
G1 X8.988 Y8.771 E114.96175
G1 X9.518 Y8.387 E114.9944
G1 X10.103 Y8.069 E115.02762
G1 X10.7 Y7.835 E115.05961
G1 X11.33 Y7.674 E115.09205
G1 X11.98 Y7.594 E115.12472
G1 X12.289 Y7.583 E115.14015
G1 X154.817 Y7.583 E122.2509
G1 X155.457 Y7.625 E122.2829
G1 X156.098 Y7.749 E122.31547
G1 X156.719 Y7.952 E122.34807
G1 X157.31 Y8.231 E122.38067
G1 X157.86 Y8.582 E122.41322
G1 X158.351 Y8.987 E122.44498
G1 X158.798 Y9.463 E122.47756
G1 X159.183 Y9.991 E122.51016
G1 X159.499 Y10.564 E122.5428
G1 X159.739 Y11.171 E122.57537
G1 X159.902 Y11.801 E122.60783
G1 X159.985 Y12.451 E122.64052
G1 X159.996 Y12.777 E122.6568
G1 X159.996 Y138.288 E128.91857
G1 X159.956 Y138.927 E128.95051
G1 X159.833 Y139.571 E128.98322
G1 X159.633 Y140.19 E129.01567
G1 X159.358 Y140.782 E129.04824
G1 X159.006 Y141.335 E129.08094
G1 X158.592 Y141.838 E129.11345
G1 X158.103 Y142.294 E129.1468
G1 X157.574 Y142.678 E129.17942
G1 X157 Y142.992 E129.21206
G1 X156.392 Y143.231 E129.24465
G1 X155.761 Y143.391 E129.27713
G1 X155.112 Y143.472 E129.30976
G1 X154.803 Y143.483 E129.32518
G1 X12.275 Y143.483 E136.43593
G1 X11.634 Y143.44 E136.46799
G1 X10.994 Y143.317 E136.5005
G1 X10.373 Y143.114 E136.53309
G1 X9.781 Y142.833 E136.56579
G1 X9.231 Y142.483 E136.59831
G1 X8.74 Y142.079 E136.63003
G1 X8.293 Y141.602 E136.66265
G1 X7.909 Y141.075 E136.69518
G1 X7.593 Y140.502 E136.72783
G1 X7.353 Y139.894 E136.76044
G1 X7.19 Y139.264 E136.7929
G1 X7.109 Y138.63 E136.82479
G1 X7.096 Y138.29 E136.84176
G1 X7.096 Y12.778 E143.10358
G1 F1500 E142.30358
;MESH:BassMate-Panel-31-10-2022_2.stl
G0 F2160 X7.725 Y12.796
G0 X7.906 Y13.721
G1 F1500 E143.10358
G0 F2160 X7.496 Y13.721
;TYPE:WALL-OUTER
G1 F3600 X7.497 Y138.278 E149.31776
G1 X7.535 Y138.812 E149.34447
G1 X7.655 Y139.468 E149.37774
G1 X7.843 Y140.048 E149.40816
G1 X8.093 Y140.581 E149.43753
G1 X8.421 Y141.1 E149.46816
G1 X8.8 Y141.559 E149.49786
G1 X9.236 Y141.968 E149.52768
G1 X9.712 Y142.315 E149.55707
G1 X10.232 Y142.604 E149.58675
G1 X10.805 Y142.833 E149.61753
G1 X11.377 Y142.982 E149.64702
G1 X11.979 Y143.061 E149.67731
G1 X12.453 Y143.083 E149.70099
G1 X154.791 Y143.083 E156.80226
G1 X155.298 Y143.046 E156.82762
G1 X155.969 Y142.927 E156.86162
G1 X156.547 Y142.74 E156.89193
G1 X157.083 Y142.491 E156.92141
G1 X157.602 Y142.164 E156.95202
G1 X158.06 Y141.788 E156.98158
G1 X158.49 Y141.332 E157.01285
G1 X158.837 Y140.854 E157.04232
G1 X159.127 Y140.325 E157.07242
G1 X159.35 Y139.763 E157.10258
G1 X159.499 Y139.188 E157.13222
G1 X159.576 Y138.578 E157.16289
G1 X159.596 Y138.123 E157.18561
G1 X159.596 Y12.861 E163.43496
G1 X159.558 Y12.261 E163.46495
G1 X159.441 Y11.608 E163.49805
G1 X159.254 Y11.033 E163.52822
G1 X158.994 Y10.476 E163.55888
G1 X158.674 Y9.972 E163.58867
G1 X158.287 Y9.504 E163.61897
G1 X157.851 Y9.095 E163.64879
G1 X157.384 Y8.753 E163.67767
G1 X156.841 Y8.452 E163.70864
G1 X156.274 Y8.228 E163.73906
G1 X155.725 Y8.085 E163.76736
G1 X155.103 Y8.004 E163.79866
G1 X154.642 Y7.983 E163.82168
G1 X12.299 Y7.983 E170.9232
G1 X11.757 Y8.024 E170.95032
G1 X11.133 Y8.137 E170.98196
G1 X10.563 Y8.318 E171.01179
G1 X10.004 Y8.577 E171.04253
G1 X9.497 Y8.898 E171.07247
G1 X9.032 Y9.28 E171.10249
G1 X8.613 Y9.722 E171.13288
G1 X8.255 Y10.212 E171.16315
G1 X7.959 Y10.751 E171.19383
G1 X7.738 Y11.313 E171.22396
G1 X7.595 Y11.872 E171.25274
G1 X7.516 Y12.49 E171.28383
G1 X7.496 Y13.721 E171.34525
G0 F2160 X7.496 Y13.921
G0 X7.906 Y13.921
G0 X16.688 Y13.721
G0 X17.098 Y13.721
G1 F3600 X17.104 Y13.671 E171.34776
G1 X17.226 Y13.242 E171.37001
G1 X17.447 Y12.937 E171.38881
G1 X17.814 Y12.686 E171.41099
G1 X18.231 Y12.585 E171.43239
G1 X26.855 Y12.585 E171.86265
G1 X27.123 Y12.63 E171.87621
G1 X27.467 Y12.789 E171.89511
G1 X27.765 Y13.084 E171.91603
G1 X27.921 Y13.369 E171.93224
G1 X27.994 Y13.721 E171.95018
G1 X27.993 Y22.367 E172.38153
G1 X27.863 Y22.829 E172.40547
G1 F3609 X27.59 Y23.18 E172.4276
G1 X27.211 Y23.408 E172.44961
G1 F3600 X26.859 Y23.481 E172.46755
G1 X18.281 Y23.483 E172.8955
G1 X17.787 Y23.371 E172.92078
G1 X17.446 Y23.129 E172.94164
G1 X17.195 Y22.756 E172.96407
G1 X17.098 Y22.348 E172.98499
G1 X17.098 Y13.721 E173.41539
G0 F2160 X17.104 Y13.671
G0 X17.145 Y13.527
G0 X16.723 Y13.46
G0 X16.749 Y22.389
G0 X16.889 Y22.939
G0 X17.228 Y23.407
G0 X17.77 Y23.727
G0 X27.755 Y25.365
G0 X28.16 Y25.411
G1 F3600 X28.25 Y24.938 E173.43941
G1 X28.452 Y24.519 E173.46262
G1 X28.754 Y24.154 E173.48626
G1 X29.153 Y23.867 E173.51078
G1 X29.577 Y23.702 E173.53348
G1 X30.052 Y23.643 E173.55736
G1 X30.6 Y23.734 E173.58507
G1 X30.957 Y23.877 E173.60426
G1 X31.34 Y24.157 E173.62793
G1 X31.651 Y24.535 E173.65235
G1 X31.849 Y24.971 E173.67624
G1 X31.932 Y25.429 E173.69946
G1 X31.901 Y25.892 E173.72261
G1 X31.754 Y26.341 E173.74618
G1 X31.474 Y26.768 E173.77165
G1 X31.144 Y27.071 E173.79401
G1 X30.713 Y27.297 E173.81829
G1 X30.281 Y27.407 E173.84053
G1 X29.709 Y27.383 E173.86909
G1 X29.326 Y27.279 E173.88889
G1 X28.871 Y27.005 E173.91539
G1 F3609 X28.59 Y26.733 E173.93485
G1 X28.334 Y26.333 E173.95848
G1 F3600 X28.191 Y25.885 E173.98194
G1 X28.16 Y25.411 E174.00564
G0 F2160 X28.197 Y25.215
G0 X27.777 Y25.167
G0 X28.142 Y24.354
G0 X28.496 Y23.916
G0 X29.067 Y23.547
G0 X31.688 Y22.245
G0 X32.098 Y22.245
G1 F3600 X32.099 Y13.698 E174.43205
G1 X32.249 Y13.208 E174.45762
G1 X32.447 Y12.937 E174.47436
G1 X32.814 Y12.686 E174.49655
G1 X33.231 Y12.585 E174.51795
G1 X41.855 Y12.585 E174.94821
G1 X42.123 Y12.63 E174.96176
G1 X42.467 Y12.789 E174.98067
G1 X42.765 Y13.084 E175.00159
G1 X42.921 Y13.369 E175.0178
G1 X42.994 Y13.721 E175.03573
G1 X42.993 Y22.371 E175.46729
G1 X42.863 Y22.829 E175.49104
G1 X42.626 Y23.152 E175.51102
G1 X42.211 Y23.408 E175.53535
G1 X41.855 Y23.481 E175.55348
G1 X33.281 Y23.483 E175.98124
G1 X32.791 Y23.373 E176.0063
G1 X32.446 Y23.129 E176.02738
G1 X32.187 Y22.723 E176.0514
G1 X32.098 Y22.245 E176.07566
G0 F2160 X32.098 Y22.045
G0 X31.688 Y22.045
G0 X32.281 Y25.369
G0 X32.205 Y26.042
G0 X31.688 Y28.721
G0 X32.098 Y28.721
G1 F3600 X32.226 Y28.242 E176.1004
G1 X32.461 Y27.927 E176.12
G1 F3609 X32.747 Y27.719 E176.1376
G1 X33.231 Y27.585 E176.16259
G1 F3600 X41.873 Y27.585 E176.59375
G1 X42.123 Y27.63 E176.60642
G1 X42.467 Y27.789 E176.62533
G1 X42.765 Y28.084 E176.64625
G1 X42.921 Y28.369 E176.66246
G1 X42.994 Y28.721 E176.68039
G1 X42.993 Y37.368 E177.11179
G1 X42.863 Y37.829 E177.13569
G1 X42.591 Y38.18 E177.15784
G1 X42.211 Y38.408 E177.17995
G1 X41.855 Y38.481 E177.19808
G1 X33.276 Y38.483 E177.62609
G1 X33.033 Y38.451 E177.63832
G1 X32.625 Y38.276 E177.66047
G1 X32.346 Y38.017 E177.67946
G1 X32.17 Y37.694 E177.69781
G1 X32.098 Y37.346 E177.71554
G1 X32.098 Y28.721 E178.14584
G0 F2160 X32.149 Y28.528
G0 X31.723 Y28.461
G0 X32.172 Y27.715
G0 X32.543 Y27.445
G0 X46.688 Y22.346
G0 X47.098 Y22.346
G1 F3600 X47.099 Y13.698 E178.57729
G1 X47.249 Y13.208 E178.60286
G1 X47.447 Y12.937 E178.6196
G1 X47.814 Y12.686 E178.64178
G1 X48.231 Y12.585 E178.66319
G1 X56.855 Y12.585 E179.09344
G1 X57.123 Y12.63 E179.107
G1 X57.467 Y12.789 E179.12591
G1 X57.765 Y13.084 E179.14683
G1 X57.921 Y13.369 E179.16304
G1 X57.993 Y13.695 E179.17969
G1 X57.995 Y22.345 E179.61124
G1 X57.863 Y22.829 E179.63627
G1 F3609 X57.59 Y23.18 E179.6584
G1 X57.211 Y23.408 E179.68041
G1 F3600 X56.859 Y23.481 E179.69835
G1 X48.281 Y23.483 E180.12631
G1 X47.787 Y23.371 E180.15158
G1 X47.446 Y23.129 E180.17244
G1 X47.195 Y22.756 E180.19487
G1 X47.098 Y22.346 E180.21589
G0 F2160 X47.098 Y22.146
G0 X46.688 Y22.146
